X:271
T:Fonte Abandonada
Z:Jack Campin, http://www.campin.me.uk/
F:Jack Campin's Nine-Note Tunebook
% last edit 03-02-2013
C:Pixinguinha
G:Brazilian "choro" slow waltz
M:3/4
L:1/8
Q:1/4=90
K:GMin
(D|=E^F) (GF) (AG) |(B4    GB)|(A4     A^F)|   G4 z
 F| GA   (BA) (cB) |(d4    cB)|(c4     BA) |   B4 z2  |
    AB    cB   AG  |(G2 ^F4-  |^F2) z(DED) |  (B4 G^F)|
   (A4         G^F)|(G4    FE)| G4     FE  |[1 D4 z  :|\
                                            [2 D6-    |D2 z2 z2||
K:G
(c4   BA)|G2 _E2 B2|(A2 G2) BF|E6-    |
 E2 zCEG |B3    AGE| D6       |G3  ABA|
 G3  ABA |G3    ABA| G3    ABG|E6-    |
 E2 zCEG |A4     B2| G6-      |G2 z2z|]

